X: 122081
T: Little Brown Hen (The)
C: Joe Liddy
Z: BB
S: "The Leitrim Fiddler" (Dublin 1981)
L: 1/8
M: 6/8
R: jig
Q: 1/4 = 170
K: Edor
A/F/ | E3 d3 |cBA BAF | BAF EFA | BAF DEF |
E3 d3 | cBA BAF | AFE BAF | EFD E2 :|
A | B2e efe | efe def | edB dBA | BAF EFA |
B2e def | gfe fed | BdA BAF | EFD E2 :|
%%%%%%%%%%%%%%%%%
